humanity-icon-theme/Humanity/animations/48/brasero-disc-60.svg

<?xml version="1.0" encoding="UTF-8" standalone="no"?>
<!-- Created with Inkscape (http://www.inkscape.org/) -->
<svg
   xmlns:svg="http://www.w3.org/2000/svg"
   xmlns="http://www.w3.org/2000/svg"
   xmlns:xlink="http://www.w3.org/1999/xlink"
   version="1.0"
   width="48"
   height="48"
   id="svg2567">
  <defs
     id="defs2569">
    <linearGradient
       id="linearGradient23419">
      <stop
         id="stop23421"
         style="stop-color:#000000;stop-opacity:1"
         offset="0" />
      <stop
         id="stop23423"
         style="stop-color:#000000;stop-opacity:0"
         offset="1" />
    </linearGradient>
    <radialGradient
       cx="23.334524"
       cy="41.63604"
       r="22.627417"
       fx="23.334524"
       fy="41.63604"
       id="radialGradient2551"
       xlink:href="#linearGradient23419"
       gradientUnits="userSpaceOnUse"
       gradientTransform="matrix(0.9722718,0,0,0.2872354,1.3124992,27.540524)" />
    <linearGradient
       id="linearGradient3772">
      <stop
         id="stop3774"
         style="stop-color:#b4b4b4;stop-opacity:1"
         offset="0" />
      <stop
         id="stop3776"
         style="stop-color:#969696;stop-opacity:1"
         offset="1" />
    </linearGradient>
    <linearGradient
       x1="-21.915663"
       y1="3"
       x2="-21.915663"
       y2="45.032898"
       id="linearGradient2548"
       xlink:href="#linearGradient3772"
       gradientUnits="userSpaceOnUse"
       gradientTransform="translate(50.26506,0)" />
    <linearGradient
       x1="12.2744"
       y1="32.4165"
       x2="35.391201"
       y2="14.2033"
       id="linearGradient3263"
       gradientUnits="userSpaceOnUse">
      <stop
         id="stop3265"
         style="stop-color:#dedbde;stop-opacity:1"
         offset="0" />
      <stop
         id="stop3267"
         style="stop-color:#e6e6e6;stop-opacity:1"
         offset="0.5" />
      <stop
         id="stop3269"
         style="stop-color:#d2d2d2;stop-opacity:1"
         offset="1" />
    </linearGradient>
    <linearGradient
       x1="12.2744"
       y1="32.4165"
       x2="35.391201"
       y2="14.2033"
       id="linearGradient2546"
       xlink:href="#linearGradient3263"
       gradientUnits="userSpaceOnUse"
       gradientTransform="matrix(0,1.1714389,-1.1714389,0,51.060244,-4.11454)" />
    <linearGradient
       id="linearGradient3428">
      <stop
         id="stop3430"
         style="stop-color:#aaaaaa;stop-opacity:1"
         offset="0" />
      <stop
         id="stop3432"
         style="stop-color:#d4d4d4;stop-opacity:1"
         offset="1" />
    </linearGradient>
    <linearGradient
       x1="21.448364"
       y1="15.5"
       x2="21.448364"
       y2="32.509201"
       id="linearGradient2542"
       xlink:href="#linearGradient3428"
       gradientUnits="userSpaceOnUse"
       gradientTransform="matrix(0.9375,0,0,0.9375,1.5,1.5)" />
    <linearGradient
       id="linearGradient3519">
      <stop
         id="stop3521"
         style="stop-color:#fcd9cd;stop-opacity:1"
         offset="0" />
      <stop
         id="stop3523"
         style="stop-color:#fcd9cd;stop-opacity:0"
         offset="1" />
    </linearGradient>
    <linearGradient
       x1="10.609375"
       y1="17.886322"
       x2="9.7297754"
       y2="20.612656"
       id="linearGradient3354"
       xlink:href="#linearGradient3519"
       gradientUnits="userSpaceOnUse"
       spreadMethod="reflect" />
    <linearGradient
       id="linearGradient3511">
      <stop
         id="stop3513"
         style="stop-color:#ebeec7;stop-opacity:1"
         offset="0" />
      <stop
         id="stop3515"
         style="stop-color:#ebeec7;stop-opacity:0"
         offset="1" />
    </linearGradient>
    <linearGradient
       x1="12.371647"
       y1="16.188046"
       x2="14.609327"
       y2="13.461712"
       id="linearGradient3352"
       xlink:href="#linearGradient3511"
       gradientUnits="userSpaceOnUse"
       spreadMethod="reflect" />
    <linearGradient
       id="linearGradient3503">
      <stop
         id="stop3505"
         style="stop-color:#c4ebdd;stop-opacity:1"
         offset="0" />
      <stop
         id="stop3507"
         style="stop-color:#c4ebdd;stop-opacity:0"
         offset="1" />
    </linearGradient>
    <linearGradient
       x1="14.084608"
       y1="13.045606"
       x2="16.994024"
       y2="10.732353"
       id="linearGradient3350"
       xlink:href="#linearGradient3503"
       gradientUnits="userSpaceOnUse"
       spreadMethod="reflect" />
    <linearGradient
       id="linearGradient3495">
      <stop
         id="stop3497"
         style="stop-color:#c1cbe4;stop-opacity:1"
         offset="0" />
      <stop
         id="stop3499"
         style="stop-color:#c1cbe4;stop-opacity:0"
         offset="1" />
    </linearGradient>
    <linearGradient
       x1="17.494959"
       y1="11.200086"
       x2="21.047453"
       y2="9.7956104"
       id="linearGradient3348"
       xlink:href="#linearGradient3495"
       gradientUnits="userSpaceOnUse"
       spreadMethod="reflect" />
    <linearGradient
       id="linearGradient3487">
      <stop
         id="stop3489"
         style="stop-color:#e6cde2;stop-opacity:1"
         offset="0" />
      <stop
         id="stop3491"
         style="stop-color:#e6cde2;stop-opacity:0"
         offset="1" />
    </linearGradient>
    <linearGradient
       x1="20.580074"
       y1="10.774516"
       x2="24.27351"
       y2="9.8622112"
       id="linearGradient3346"
       xlink:href="#linearGradient3487"
       gradientUnits="userSpaceOnUse"
       spreadMethod="reflect" />
    <linearGradient
       x1="18.775953"
       y1="4.0378027"
       x2="18.203465"
       y2="45.962208"
       id="linearGradient2533"
       xlink:href="#linearGradient6036"
       gradientUnits="userSpaceOnUse"
       gradientTransform="matrix(0.4293444,0,0,0.4293442,13.546752,13.266392)" />
    <linearGradient
       id="linearGradient3839">
      <stop
         id="stop3841"
         style="stop-color:#ffed8c;stop-opacity:1"
         offset="0" />
      <stop
         id="stop3843"
         style="stop-color:#fb9858;stop-opacity:1"
         offset="0.26238" />
      <stop
         id="stop3845"
         style="stop-color:#dc572a;stop-opacity:1"
         offset="0.66093999" />
      <stop
         id="stop3847"
         style="stop-color:#9f3110;stop-opacity:1"
         offset="1" />
    </linearGradient>
    <radialGradient
       cx="8.8912868"
       cy="12.12289"
       r="11"
       fx="8.8912868"
       fy="12.12289"
       id="radialGradient2530"
       xlink:href="#linearGradient3839"
       gradientUnits="userSpaceOnUse"
       gradientTransform="matrix(0,3.4076715,-4.4528468,0,77.533666,-12.124767)" />
    <linearGradient
       id="linearGradient6036">
      <stop
         id="stop6038"
         style="stop-color:#ffffff;stop-opacity:1"
         offset="0" />
      <stop
         id="stop6040"
         style="stop-color:#ffffff;stop-opacity:0"
         offset="1" />
    </linearGradient>
    <linearGradient
       x1="18.775953"
       y1="4.0378027"
       x2="18.203465"
       y2="45.962208"
       id="linearGradient2527"
       xlink:href="#linearGradient6036"
       gradientUnits="userSpaceOnUse"
       gradientTransform="matrix(0.4293444,0,0,-0.4293442,13.546752,34.733607)" />
    <linearGradient
       x1="17.301205"
       y1="29.707354"
       x2="17.301205"
       y2="42.501011"
       id="linearGradient2524"
       xlink:href="#linearGradient3210"
       gradientUnits="userSpaceOnUse" />
    <linearGradient
       x1="17.301205"
       y1="4.4996829"
       x2="17.301205"
       y2="16.042885"
       id="linearGradient2521"
       xlink:href="#linearGradient3210"
       gradientUnits="userSpaceOnUse" />
    <linearGradient
       id="linearGradient3210">
      <stop
         id="stop3212"
         style="stop-color:#ffffff;stop-opacity:1"
         offset="0" />
      <stop
         id="stop3214"
         style="stop-color:#ffffff;stop-opacity:0"
         offset="1" />
    </linearGradient>
    <linearGradient
       x1="17.301205"
       y1="-0.28915662"
       x2="17.301205"
       y2="48.156349"
       id="linearGradient2518"
       xlink:href="#linearGradient3210"
       gradientUnits="userSpaceOnUse" />
  </defs>
  <g
     id="layer1">
    <path
       d="M 46,39.499867 C 46.0011,43.08962 36.151066,45.999868 24,45.999868 C 11.848934,45.999868 1.998867,43.08962 2.0000001,39.499867 C 1.998867,35.910116 11.848934,32.999868 24,32.999868 C 36.151066,32.999868 46.001133,35.910116 46,39.499867 L 46,39.499867 z"
       id="path23417"
       style="opacity:0.3;fill:url(#radialGradient2551);fill-opacity:1;fill-rule:evenodd;stroke:none;stroke-width:2;marker:none;visibility:visible;display:inline;overflow:visible" />
    <path
       d="M 44.5,24 C 44.5,12.637039 35.362959,3.5 24,3.5 C 12.637038,3.5 3.5000001,12.63704 3.5000001,24 C 3.4999981,35.36296 12.637039,44.5 24,44.5 C 35.362958,44.499998 44.5,35.362961 44.5,24 z M 31.5,24 C 31.5,28.12813 28.21073,31.5 24,31.5 C 19.70667,31.5 16.5,28.044687 16.5,24 C 16.5,19.872697 19.541467,16.5 24,16.5 C 28.458533,16.5 31.5,19.95447 31.5,24 z"
       id="path2781"
       style="fill:url(#linearGradient2546);fill-rule:nonzero;stroke:url(#linearGradient2548);stroke-width:1;stroke-miterlimit:4;stroke-opacity:1" />
    <path
       d="M 24,16 C 19.584,16 16,19.584 16,24 C 16,28.416 19.584,32 24,32 C 28.416,32 32,28.416 32,24 C 32,19.584 28.416,16 24,16 z M 24,20 C 26.208,20 28,21.792 28,24 C 28,26.208 26.208,28 24,28 C 21.792,28 20,26.208 20,24 C 20,21.792 21.792,20 24,20 z"
       id="path2474"
       style="opacity:0.5;fill:#ffffff;fill-opacity:1;fill-rule:nonzero;stroke:none;stroke-width:1;marker:none;visibility:visible;display:inline;overflow:visible;enable-background:accumulate" />
    <path
       d="M 24,16.5 C 19.86,16.5 16.5,19.86 16.5,24 C 16.5,28.14 19.86,31.5 24,31.5 C 28.14,31.5 31.5,28.14 31.5,24 C 31.5,19.86 28.14,16.5 24,16.5 z M 24,20.25 C 26.07,20.25 27.75,21.93 27.75,24 C 27.75,26.07 26.07,27.75 24,27.75 C 21.93,27.75 20.25,26.07 20.25,24 C 20.25,21.93 21.93,20.25 24,20.25 z"
       id="path3418"
       style="fill:none;stroke:url(#linearGradient2542);stroke-width:1;stroke-linecap:butt;stroke-linejoin:round;marker:none;stroke-miterlimit:4;stroke-dasharray:none;stroke-dashoffset:0;stroke-opacity:1;visibility:visible;display:inline;overflow:visible;enable-background:accumulate" />
    <g
       id="g3527">
      <path
         d="M 15.856928,5.7307748 L 20.625,16.34375 C 21.660403,15.885186 22.795334,15.625 24,15.625 C 24.03206,15.625 24.06178,15.62464 24.09375,15.625 L 24.10801,4.0047512 C 21.16586,3.9340642 18.564969,4.6620377 15.856927,5.7307748 L 15.856928,5.7307748 z"
         transform="matrix(0.9996011,2.824295e-2,-2.824295e-2,0.9996011,0.6924114,-0.6708346)"
         id="path3296"
         style="opacity:0.8;fill:url(#linearGradient3346);fill-opacity:1;fill-rule:nonzero;stroke:none" />
      <path
         d="M 12.121471,7.9060109 L 19.052497,17.266115 C 19.965606,16.59636 21.018435,16.099051 22.195126,15.840946 C 22.226446,15.834046 22.255386,15.827356 22.286696,15.820856 L 19.857174,4.426276 C 16.968201,4.9876004 14.537644,6.2818798 12.121471,7.9060109 L 12.121471,7.9060109 z"
         id="path3308"
         style="opacity:0.8;fill:url(#linearGradient3348);fill-opacity:1;fill-rule:nonzero;stroke:none" />
      <path
         d="M 8.2523933,11.646535 L 17.466117,18.802353 C 18.174767,17.919089 19.063008,17.166234 20.132802,16.612373 C 20.161272,16.597633 20.187492,16.583653 20.216052,16.569273 L 14.86585,6.2506132 C 12.220599,7.5405321 10.165881,9.452393 8.2523933,11.646535 z"
         id="path3310"
         style="opacity:0.8;fill:url(#linearGradient3350);fill-opacity:1;fill-rule:nonzero;stroke:none" />
      <path
         d="M 5.6328855,16.073974 C 12.807692,18.316222 13.483148,23.105437 18.409671,17.828101 L 10.499985,9.1321388 C 8.2787249,11.062747 6.9132871,13.459349 5.6328855,16.073974 z"
         id="path3312"
         style="opacity:0.8;fill:url(#linearGradient3352);fill-opacity:1;fill-rule:nonzero;stroke:none" />
      <path
         d="M 7.155289,13.193173 C 5.9722117,14.945185 5.2475768,16.829547 4.6301929,18.837116 L 15.96875,21.8125 C 16.184264,21.049497 16.486796,20.297733 16.9375,19.59375 C 16.95479,19.56675 16.98246,19.52673 17,19.5 L 7.155289,13.193173 z"
         id="path3314"
         style="opacity:0.8;fill:url(#linearGradient3354);fill-opacity:1;fill-rule:nonzero;stroke:none" />
    </g>
    <path
       d="M 24,15.499999 C 19.288571,15.499999 15.5,19.28857 15.5,23.999999 C 15.5,28.711428 19.288571,32.5 24,32.5 C 28.711431,32.5 32.5,28.711428 32.5,23.999999 C 32.5,19.28857 28.711431,15.499999 24,15.499999 L 24,15.499999 L 24,15.499999 L 24,15.499999 z"
       id="path2443"
       style="opacity:0.4;fill:none;stroke:url(#linearGradient2533);stroke-width:0.99999982;stroke-miterlimit:4;stroke-opacity:1" />
    <path
       d="M 23.5,3.5 C 23.500109,7.8333333 23.5,12.166667 23.5,16.5 C 28.495859,16.5 32.591413,20.608167 31.251697,25.790596 C 30.274467,29.952566 25.62769,32.687818 21.262252,30.974247 C 20.568102,30.663429 19.864579,30.246464 19.23217,29.748439 C 19.23217,29.748439 11.562453,40.300908 11.562453,40.300908 C 13.302645,41.634029 15.297217,42.749101 17.352713,43.405013 C 24.890976,46.057246 33.843296,43.790629 39.163583,37.815949 C 45.241595,31.334954 46.257756,20.725927 41.454372,13.226309 C 37.499169,6.8481443 30.409949,3.2187718 23.5,3.5 z"
       id="path2559"
       style="fill:url(#radialGradient2530);fill-opacity:1;fill-rule:nonzero;stroke:#ce5c00;stroke-width:1;stroke-linecap:round;stroke-linejoin:round;marker:none;marker-start:none;marker-mid:none;marker-end:none;stroke-miterlimit:4;stroke-dasharray:none;stroke-dashoffset:0;stroke-opacity:1;visibility:visible;display:inline;overflow:visible;enable-background:accumulate" />
    <path
       d="M 24,15.499999 C 28.711431,15.499999 32.5,19.288571 32.5,24 C 32.5,28.711429 28.711431,32.5 24,32.5 L 24,32.5 L 24,32.5 L 24,32.5 C 22.077301,32.5 20.390655,31.844497 19.048699,30.850668"
       id="path3281"
       style="opacity:0.4;fill:none;stroke:url(#linearGradient2527);stroke-width:0.99999982;stroke-miterlimit:4;stroke-opacity:1" />
    <path
       d="M 19.181499,31.548023 L 13.215938,39.696482"
       id="path2528"
       style="opacity:0.4;fill:none;fill-opacity:1;fill-rule:evenodd;stroke:url(#linearGradient2524);stroke-width:1px;stroke-linecap:butt;stroke-linejoin:miter;stroke-opacity:1" />
    <path
       d="M 24.5,5 L 24.5,15.5"
       id="path2526"
       style="opacity:0.4;fill:none;fill-opacity:1;fill-rule:evenodd;stroke:url(#linearGradient2521);stroke-width:1px;stroke-linecap:butt;stroke-linejoin:miter;stroke-opacity:1" />
    <path
       d="M 24.000001,4.5000009 C 13.191429,4.5000009 4.4999995,13.191431 4.4999995,24.000001 C 4.4999995,34.808572 13.191429,43.499999 24.000001,43.499999 C 34.808573,43.499999 43.5,34.808572 43.5,24.000001 C 43.5,13.191431 34.808573,4.5000009 24.000001,4.5000009 L 24.000001,4.5000009 L 24.000001,4.5000009 z"
       id="path2561"
       style="opacity:0.4;fill:none;fill-opacity:1;fill-rule:evenodd;stroke:url(#linearGradient2518);stroke-width:1px;stroke-linecap:butt;stroke-linejoin:miter;stroke-opacity:1" />
  </g>
</svg>

<?xml version="1.0" encoding="UTF-8" standalone="no"?>
<!-- Created with Inkscape (http://www.inkscape.org/) -->
<svg id="svg2567" xmlns="http://www.w3.org/2000/svg" height="48" width="48" version="1.0" xmlns:xlink="http://www.w3.org/1999/xlink">
 <defs id="defs2569">
  <radialGradient id="radialGradient2551" gradientUnits="userSpaceOnUse" cy="41.636" cx="23.335" gradientTransform="matrix(.97227 0 0 .28724 1.3125 27.541)" r="22.627">
   <stop id="stop23421" offset="0"/>
   <stop id="stop23423" style="stop-opacity:0" offset="1"/>
  </radialGradient>
  <linearGradient id="linearGradient2548" y2="45.033" gradientUnits="userSpaceOnUse" x2="-21.916" gradientTransform="translate(50.265)" y1="3" x1="-21.916">
   <stop id="stop3774" style="stop-color:#b4b4b4" offset="0"/>
   <stop id="stop3776" style="stop-color:#969696" offset="1"/>
  </linearGradient>
  <linearGradient id="linearGradient2546" y2="14.203" gradientUnits="userSpaceOnUse" x2="35.391" gradientTransform="matrix(0 1.1714 -1.1714 0 51.06 -4.1145)" y1="32.416" x1="12.274">
   <stop id="stop3265" style="stop-color:#dedbde" offset="0"/>
   <stop id="stop3267" style="stop-color:#e6e6e6" offset=".5"/>
   <stop id="stop3269" style="stop-color:#d2d2d2" offset="1"/>
  </linearGradient>
  <linearGradient id="linearGradient2542" y2="32.509" gradientUnits="userSpaceOnUse" x2="21.448" gradientTransform="matrix(.9375 0 0 .9375 1.5 1.5)" y1="15.5" x1="21.448">
   <stop id="stop3430" style="stop-color:#aaa" offset="0"/>
   <stop id="stop3432" style="stop-color:#d4d4d4" offset="1"/>
  </linearGradient>
  <linearGradient id="linearGradient3354" y2="20.613" spreadMethod="reflect" gradientUnits="userSpaceOnUse" x2="9.7298" y1="17.886" x1="10.609">
   <stop id="stop3521" style="stop-color:#fcd9cd" offset="0"/>
   <stop id="stop3523" style="stop-color:#fcd9cd;stop-opacity:0" offset="1"/>
  </linearGradient>
  <linearGradient id="linearGradient3352" y2="13.462" spreadMethod="reflect" gradientUnits="userSpaceOnUse" x2="14.609" y1="16.188" x1="12.372">
   <stop id="stop3513" style="stop-color:#ebeec7" offset="0"/>
   <stop id="stop3515" style="stop-color:#ebeec7;stop-opacity:0" offset="1"/>
  </linearGradient>
  <linearGradient id="linearGradient3350" y2="10.732" spreadMethod="reflect" gradientUnits="userSpaceOnUse" x2="16.994" y1="13.046" x1="14.085">
   <stop id="stop3505" style="stop-color:#c4ebdd" offset="0"/>
   <stop id="stop3507" style="stop-color:#c4ebdd;stop-opacity:0" offset="1"/>
  </linearGradient>
  <linearGradient id="linearGradient3348" y2="9.7956" spreadMethod="reflect" gradientUnits="userSpaceOnUse" x2="21.047" y1="11.2" x1="17.495">
   <stop id="stop3497" style="stop-color:#c1cbe4" offset="0"/>
   <stop id="stop3499" style="stop-color:#c1cbe4;stop-opacity:0" offset="1"/>
  </linearGradient>
  <linearGradient id="linearGradient3346" y2="9.8622" spreadMethod="reflect" gradientUnits="userSpaceOnUse" x2="24.274" y1="10.775" x1="20.58">
   <stop id="stop3489" style="stop-color:#e6cde2" offset="0"/>
   <stop id="stop3491" style="stop-color:#e6cde2;stop-opacity:0" offset="1"/>
  </linearGradient>
  <linearGradient id="linearGradient2533" y2="45.962" xlink:href="#linearGradient6036" gradientUnits="userSpaceOnUse" x2="18.203" gradientTransform="matrix(.42934 0 0 .42934 13.547 13.266)" y1="4.0378" x1="18.776"/>
  <radialGradient id="radialGradient2530" gradientUnits="userSpaceOnUse" cy="12.123" cx="8.8913" gradientTransform="matrix(0 3.4077 -4.4528 0 77.534 -12.125)" r="11">
   <stop id="stop3841" style="stop-color:#ffed8c" offset="0"/>
   <stop id="stop3843" style="stop-color:#fb9858" offset=".26238"/>
   <stop id="stop3845" style="stop-color:#dc572a" offset=".66094"/>
   <stop id="stop3847" style="stop-color:#9f3110" offset="1"/>
  </radialGradient>
  <linearGradient id="linearGradient6036">
   <stop id="stop6038" style="stop-color:#fff" offset="0"/>
   <stop id="stop6040" style="stop-color:#fff;stop-opacity:0" offset="1"/>
  </linearGradient>
  <linearGradient id="linearGradient2527" y2="45.962" xlink:href="#linearGradient6036" gradientUnits="userSpaceOnUse" x2="18.203" gradientTransform="matrix(.42934 0 0 -.42934 13.547 34.734)" y1="4.0378" x1="18.776"/>
  <linearGradient id="linearGradient2524" y2="42.501" xlink:href="#linearGradient6036" gradientUnits="userSpaceOnUse" x2="17.301" y1="29.707" x1="17.301"/>
  <linearGradient id="linearGradient2521" y2="16.043" xlink:href="#linearGradient6036" gradientUnits="userSpaceOnUse" x2="17.301" y1="4.4997" x1="17.301"/>
  <linearGradient id="linearGradient2518" y2="48.156" xlink:href="#linearGradient6036" gradientUnits="userSpaceOnUse" x2="17.301" y1="-.28916" x1="17.301"/>
 </defs>
 <g id="layer1">
  <path id="path23417" style="opacity:.3;fill-rule:evenodd;fill:url(#radialGradient2551)" d="m46 39.5c0.001 3.59-9.849 6.5-22 6.5s-22.001-2.91-22-6.5c-0.0011-3.59 9.849-6.5 22-6.5s22.001 2.91 22 6.5z"/>
  <path id="path2781" style="stroke:url(#linearGradient2548);fill:url(#linearGradient2546)" d="m44.5 24c0-11.363-9.137-20.5-20.5-20.5s-20.5 9.137-20.5 20.5 9.137 20.5 20.5 20.5 20.5-9.137 20.5-20.5zm-13 0c0 4.128-3.289 7.5-7.5 7.5-4.293 0-7.5-3.455-7.5-7.5 0-4.127 3.041-7.5 7.5-7.5s7.5 3.454 7.5 7.5z"/>
  <path id="path2474" style="opacity:.5;fill:#fff" d="m24 16c-4.416 0-8 3.584-8 8s3.584 8 8 8 8-3.584 8-8-3.584-8-8-8zm0 4c2.208 0 4 1.792 4 4s-1.792 4-4 4-4-1.792-4-4 1.792-4 4-4z"/>
  <path id="path3418" style="stroke-linejoin:round;stroke:url(#linearGradient2542);fill:none" d="m24 16.5c-4.14 0-7.5 3.36-7.5 7.5s3.36 7.5 7.5 7.5 7.5-3.36 7.5-7.5-3.36-7.5-7.5-7.5zm0 3.75c2.07 0 3.75 1.68 3.75 3.75s-1.68 3.75-3.75 3.75-3.75-1.68-3.75-3.75 1.68-3.75 3.75-3.75z"/>
  <g id="g3527">
   <path id="path3296" style="opacity:.8;fill:url(#linearGradient3346)" d="m15.857 5.7308l4.768 10.613c1.035-0.459 2.17-0.719 3.375-0.719h0.094l0.014-11.62c-2.942-0.0709-5.543 0.657-8.251 1.7258z" transform="matrix(.99960 .028243 -.028243 .99960 .69241 -.67083)"/>
   <path id="path3308" style="opacity:.8;fill:url(#linearGradient3348)" d="m12.121 7.906l6.931 9.36c0.914-0.67 1.966-1.167 3.143-1.425 0.031-0.007 0.06-0.014 0.092-0.02l-2.43-11.395c-2.889 0.5616-5.319 1.8559-7.736 3.48z"/>
   <path id="path3310" style="opacity:.8;fill:url(#linearGradient3350)" d="m8.2524 11.647l9.2136 7.155c0.709-0.883 1.597-1.636 2.667-2.19 0.028-0.014 0.054-0.028 0.083-0.043l-5.35-10.318c-2.645 1.2895-4.7 3.2014-6.6136 5.396z"/>
   <path id="path3312" style="opacity:.8;fill:url(#linearGradient3352)" d="m5.6329 16.074c7.1751 2.242 7.8501 7.031 12.777 1.754l-7.91-8.6959c-2.2213 1.9309-3.5867 4.3269-4.8671 6.9419z"/>
   <path id="path3314" style="opacity:.8;fill:url(#linearGradient3354)" d="m7.1553 13.193c-1.1831 1.752-1.9077 3.637-2.5251 5.644l11.339 2.975c0.215-0.763 0.518-1.514 0.969-2.218 0.017-0.027 0.044-0.067 0.062-0.094l-9.8447-6.307z"/>
  </g>
  <path id="path2443" style="opacity:.4;stroke:url(#linearGradient2533);fill:none" d="m24 15.5c-4.711 0-8.5 3.789-8.5 8.5s3.789 8.5 8.5 8.5 8.5-3.789 8.5-8.5-3.789-8.5-8.5-8.5z"/>
  <path id="path2559" style="stroke-linejoin:round;stroke:#ce5c00;stroke-linecap:round;fill:url(#radialGradient2530)" d="m23.5 3.5v13c4.996 0 9.091 4.108 7.752 9.291-0.978 4.162-5.624 6.897-9.99 5.183-0.694-0.311-1.397-0.728-2.03-1.226l-7.67 10.553c1.741 1.333 3.735 2.448 5.791 3.104 7.538 2.652 16.49 0.386 21.811-5.589 6.078-6.481 7.094-17.09 2.29-24.59-3.955-6.3779-11.044-10.007-17.954-9.726z"/>
  <path id="path3281" style="opacity:.4;stroke:url(#linearGradient2527);fill:none" d="m24 15.5c4.711 0 8.5 3.789 8.5 8.5s-3.789 8.5-8.5 8.5c-1.923 0-3.609-0.656-4.951-1.649"/>
  <path id="path2528" style="opacity:.4;stroke:url(#linearGradient2524);stroke-width:1px;fill:none" d="m19.181 31.548l-5.965 8.148"/>
  <path id="path2526" style="opacity:.4;stroke:url(#linearGradient2521);stroke-width:1px;fill:none" d="m24.5 5v10.5"/>
  <path id="path2561" style="opacity:.4;stroke:url(#linearGradient2518);stroke-width:1px;fill:none" d="m24 4.5c-10.809 0-19.5 8.691-19.5 19.5s8.691 19.5 19.5 19.5 19.5-8.691 19.5-19.5-8.691-19.5-19.5-19.5z"/>
 </g>
</svg>
